X:2354
T:Reeghyn dy Vannin 
C:Mr & Mrs J Kermode, Maughold 
C:Traditional
S:Coll.Mona Douglas
O:Isle of Man
B:Kiaull Vannin 354 
M:4/4 
L:1/4 
Q:100 
K:D 
F/|A2 F>D|E E G>F|A2 F>D|E E D>F|A2 F>D|E E G>F|A2 F>D|E E D2 | 
D D/D/ D D|E E G>F|A2 F>D|E E D2|D D/D/ D D|E E G>F|A2 F>D|E E D2| 
d2 F D|E E G2|d2 F D|E E D2|d2 F D|E E G>F|d2 F D|E E D2| 

